X:1165
T:Quick Step.
C:by Mr. Bourat.
M:2/4
L:1/16
Q:1/4=88
I: :: ::
Z:Jack Campin * www.campin.me.uk * 2009
K:G
g4   dedc|B2B2 B4|d4   BcBA|G2G2 G4|AGAB c2c2|BABc d2d2|e2d2 c2B2|A4   A4:|
AGFG AGFG|A2c2 c4|BAGA BAGA|B2d2 d4|g4   dedc|B2B2 B4  |BAGB AGFA|G2G2 G4:|
<end>
<start>
